svg/u1f962.svg

<svg viewBox="0 0 128 128" xmlns="http://www.w3.org/2000/svg">
  <path d="M86.69,14.12L3.91,103.43c0,0-0.67,0.51-0.67,1.37c0,1.04,3.1,3.83,4,3.87 c0.9,0.04,1.63-0.78,1.63-0.78l77.02-78.47L86.69,14.12z" fill="#D61029"/>
  <path d="M102.1,42.41l-85.07,74.88c0,0-0.84,0.75-0.63,1.76c0.17,0.87,2.49,3.42,3.27,3.48 c1.03,0.08,1.67-0.52,1.67-0.52l85.89-71.02L102.1,42.41z" fill="#D61029"/>
  <path d="M117.49,29.36c-1.19,0.24-22.25,19.09-22.25,19.09l6.23,7.31c0,0,22.09-17.8,22.5-18.81 c0.41-1.02-0.47-2.07-2.77-4.51S118.16,29.22,117.49,29.36z" fill="#474C4F"/>
  <path d="M94.55,6.47c-1.15,0-18.34,18.95-18.34,18.95l6.87,6.87c0,0,18.18-18.19,18.31-19.2 c0.14-1.01-0.88-2.01-3.18-4.16C96.33,7.18,95.5,6.47,94.55,6.47z" fill="#474C4F"/>
</svg>

<svg viewBox="0 0 128 128" xmlns="http://www.w3.org/2000/svg">
  <defs/>
  <path d="M86.69,14.12 L3.91,103.43 C3.91,103.43 3.24,103.94 3.24,104.8 C3.24,105.84 6.34,108.63 7.24,108.67 C8.14,108.71 8.87,107.89 8.87,107.89 L85.89,29.42 L86.69,14.12 Z" fill="#D61029"/>
  <path d="M102.1,42.41 L17.03,117.29 C17.03,117.29 16.19,118.04 16.4,119.05 C16.57,119.92 18.89,122.47 19.67,122.53 C20.7,122.61 21.34,122.01 21.34,122.01 L107.23,50.99 L102.1,42.41 Z" fill="#D61029"/>
  <path d="M117.49,29.36 C116.3,29.6 95.24,48.45 95.24,48.45 L101.47,55.76 C101.47,55.76 123.56,37.96 123.97,36.95 C124.38,35.93 123.5,34.88 121.2,32.44 C118.9,30 118.16,29.22 117.49,29.36 Z" fill="#474C4F"/>
  <path d="M94.55,6.47 C93.4,6.47 76.21,25.42 76.21,25.42 L83.08,32.29 C83.08,32.29 101.26,14.1 101.39,13.09 C101.53,12.08 100.51,11.08 98.21,8.93 C96.33,7.18 95.5,6.47 94.55,6.47 Z" fill="#474C4F"/>
</svg>
